!!!!SEGMENT: pl-wn--mus-iii-147-376_badarzewska-tekla--sympathie-melodie-italienne.krn
!!!cenid: 18xx:3539
!!!COM: Bądarzewska, Tekla
!!!COM-rismid: pe30005936
!!!CDT:
!!!CNT:
!!!OTL: Sympathie – mélodie italienne
!!!PDT:
!!!AGN:
!!!SMS-siglum: PL-Wn
!!!SMS-shelfmark: Mus.III.147.376
!!!SMS-shelfwork: W
!!!SMS-variant:
!!!SMS-altvar:
!!!NIFC-rismid:
!!!URL-scan: https://polona.pl/item/sympathie-melodie-italienne,MTA0ODA5Ng/2/#info:metadata
!!!ONB-nifc:
**kern	**fing	**kern	**fing	**dynam
*part1	*part1	*part1	*part1	*part1
*staff2	*	*staff1	*	*
*Ipiano	*	*Iempty	*	*
*I"Piano	*	*	*	*
*I'P-no	*	*	*	*
*ICklav	*	*	*	*
*clefF4	*	*clefG2	*	*
*k[b-e-a-]	*	*k[b-e-a-]	*	*
*E-:	*	*E-:	*	*
*M4/4	*	*M4/4	*	*
*met(c)	*	*met(c)	*	*
=1	=1	=1	=1	=1
!	!	!LO:TX:a:rj:B:t=Moderato.	!	!LO:DY:b
N(16EE-\LL	.	8.r	.	p
16BB-\	.	.	.	.
16E-\JJ	.	.	.	.
16r	.	16G\	.	.
!	!	!	!	!LO:DY:a
4r	.	16B-\LL	.	<
.	.	16e-\	.	.
.	.	16g\	.	.
.	.	16b-\JJ	.	.
4r	.	16ee-\LL	.	.
.	.	16gg\	.	.
.	.	16bb-\	.	.
.	.	16eee-\JJ	.	.
8.r	.	8ggg\LN)	.	[
.	.	16r	.	mf
(16d\	4	(16dd\Jk	2	.
=2	=2	=2	=2	=2
2f^^\	2	2ff^^\	4	.
8e-\)	3	8ee-\)	.	.
8r	.	8r	.	.
4r	.	4r	.	.
=3	=3	=3	=3	=3
N(>16CC\LL	.	8.r	.	p
16GG\	.	.	.	.
16C\JJ	.	.	.	.
16E-/	.	16ryy	.	.
!	!	!	!	!LO:DY:a
4r	.	16G/LL	.	<
.	.	16c/	.	.
.	.	16e-/	.	.
.	.	16g/JJ	.	.
4r	.	16cc\LL	.	.
.	.	16ee-\	.	.
.	.	16gg\	.	.
.	.	16ccc\JJ	.	.
8.r	.	8eee-\LN)	.	.
.	.	16r	.	.
(16Bn\	.	(16bn\Jk	.	mf [
!!LO:LB:g=original
=4	=4	=4	=4	=4
2d^^\	.	2dd^^\	.	.
8c\)	.	4a-/)	.	.
8r	.	.	.	.
4r	.	4r	.	.
=5	=5	=5	=5	=5
N(16AA-\LL	.	4ryy	.	.
16E-\	.	.	.	.
16F\	.	.	.	.
16A-\JJ	.	.	.	.
4r	.	16c/LL	1	.
.	.	16e-/	.	.
.	.	16f/	.	.
.	.	16a-/JJ	.	.
2r	.	16cc\LL	1	.
.	.	16ee-\	.	.
.	.	16ff\	.	.
.	.	16aa-\JJ	.	.
.	.	8ccc\N)	.	.
.	.	8r	.	.
=6	=6	=6	=6	=6
N(16AAn\LL	.	4r	.	.
16E-\	3	.	.	.
16F\	2	.	.	.
16c\JJ	.	.	.	.
*	*	*	*below	*
!	!	!	!	!LO:DY:a
4r	.	16e-/LL	2	<
.	.	16f/	1	.
.	.	16an/	.	.
.	.	16cc/JJ	.	.
2r	.	16ee-\LL	.	[[
*	*	*	*above	*
.	.	16ff\	1	.
.	.	16aan\	.	.
.	.	16ccc\JJ	.	.
.	.	8eee-\N)	.	.
.	.	8r	.	.
!!LO:LB:g=original
=7	=7	=7	=7	=7
8BB-/	.	4r	.	.
8r	.	.	.	.
*clefG2	*	*	*	*
*	*	*8va	*	*
[2.dd\ [2.gg [2.bb-	.	[4bb-\ [4eee- [4bbb-	.	f
!	!	!LO:TX:b:i:t=rapidamente.	!	!
.	.	16bb-\LL] 16eee-] 16bbb-]	.	.
.	.	(16fff#X\	2	.
.	.	8qaaa-/	.	.
.	.	16ggg\	.	.
.	.	16fff#\JJ	.	.
.	.	16ggg\LL	.	.
.	.	16ddd\	1	.
.	.	8qfffn/	4	.
.	.	16eee-\	3	.
.	.	16ddd\JJ	2	.
*	*	*X8va	*	*
=8	=8	=8	=8	=8
8dd\] 8gg] 8bb-]	.	16eee-\LL	.	.
.	.	16aa-\	.	.
.	.	8qccc/	4	.
8r	.	16bb-\	3	.
.	.	16aa-\JJ	.	.
4r	.	16bb-\LL	3	.
.	.	16ff#X\	2	.
.	.	8qaa-X/	.	.
.	.	16gg\	.	.
.	.	16ff#\JJ	.	.
2r	.	16gg\LL	.	.
.	.	16dd\	1	.
.	.	8qffn/	4	.
.	.	16ee-\	3	.
.	.	16dd\JJ	.	.
.	.	16ee-/LL	.	.
.	.	16b-/	.	.
.	.	16g/	.	.
.	.	16e-/JJ	.	.
*clefF4	*	*	*	*
!!LO:LB:g=original
=9	=9	=9	=9	=9
*	*	*	*	*
*	*	*	*	*
4rD	.	8d/)	.	.
.	.	8r	.	.
N([4BBB-\	.	4r	.	.
16BBB-\LL]	.	4r	.	.
16DD\	.	.	.	.
16FF\	.	.	.	.
16AA-\JJ	.	.	.	.
16BB-\	.	16r<	.	.
8.r	.	16D</LL	1	.
.	.	16F</	.	.
.	.	16A-</JJ	.	.
=10	=10	=10	=10	=10
!	!	!	!	!
1r	.	16B-/LL	.	<
.	.	16d/	1	.
.	.	16f/	.	.
.	.	16a-/JJ	.	.
.	.	16b-\LL	.	.
.	.	16dd\	1	.
.	.	16ff\	.	.
.	.	16aa-\JJ	.	.
*	*	*8va	*	*
.	.	16bb-\LL	.	.
.	.	16ddd\	.	.
.	.	16fff\	.	.
.	.	16aaa-\JJ	.	.
.	.	16bbb-\LL	.	.
.	.	16dddd\	.	.
.	.	16ffff\	.	.
.	.	16gggg\JJ	.	[
=11	=11	=11	=11	=11
.	.	16qqffff/LL	.	.
!	!	!	!	!
.	.	16qqgggg/JJ	.	.
*^	*	*	*	*
2rD;	2.ryy	.	2aaaa-;\N)	.	.
*	*	*	*X8va	*	*
!	!	!	!LO:TX:b:i:t=lunga.	!	!
4rD;	.	.	4r;	.	.
!!LO:PB:g=original
!	!	!	!LO:TX:a:B:t=m.d.	!	!
!	!	!	!LO:TX:a:B:t=Andante placido.	!	!
(8.B-/L	4rEE	.	4ryy	.	.
16A-/Jk	.	.	.	.	.
=12	=12	=12	=12	=12	=12
8.c/L	4EE-\	.	4ryy	.	.
16B-/Jk	.	.	.	.	.
!	!	!	!LO:TX:b:B:t=m.g.	!	!
4.G/)	2ryy	.	(4g'/ 4b-	.	.
!	!	!	!LO:TX:b:i:t=la melodia ben legato	!	!
.	.	.	4b-'/) 4ee-	.	.
(16B-/KL	.	.	.	.	.
8.e-/	.	.	.	.	.
.	4rEE	.	4ryy	.	.
16d/Jk	.	.	.	.	.
16rc	.	.	.	.	.
=13	=13	=13	=13	=13	=13
8.f/L	4AA-\	.	4ryy	.	.
16e-/Jk	.	.	.	.	.
!	!	!	!LO:TX:a:B:t=m.g.	!	!
2c/)	2ryy	.	(4a-'/ 4cc 4ee-	.	.
.	.	.	4cc'/) 4ee- 4ff	.	.
(8d/L	4rEE	.	4ryy	.	<
8e-/J	.	.	.	.	.
=14	=14	=14	=14	=14	=14
16qe-/	.	.	.	.	[
4g/	4BB-\	.	4ryy	.	.
8f/L	2ryy	.	(4a-'/ 4b- 4dd	.	.
8d/J	.	.	.	.	.
20B-/LL	.	.	4b-'/) 4dd 4ff	.	.
20c/	.	.	.	.	.
20B-/	.	.	.	.	.
20An/	.	.	.	.	.
20B-/JJ	.	.	.	.	.
8c/L)	4rEE	.	4ryy	.	.
16r	.	.	.	.	.
(16A-X/Jk	.	.	.	.	.
=15	=15	=15	=15	=15	=15
2F#X/	4EE-\	.	4ryy	.	>
.	2ryy	.	(4an'/ 4ee-	.	.
4G/)	.	.	4b-'/) 4ee-	.	]
(8.B-/L	4rEE	.	4ryy	.	.
16An/Jk	.	.	.	.	.
=16	=16	=16	=16	=16	=16
24qAn/	.	.	.	.	.
8.c/L	4EE-\	.	4ryy	.	.
16B-/Jk	.	.	.	.	.
4.G/)	2ryy	.	(4g'/ 4b-	.	.
.	.	.	4b-'/) 4ee-	.	.
(8B-/L	.	.	.	.	.
8.e-/	4rEE	.	4ryy	.	<
16d/Jk	.	.	.	.	.
=17	=17	=17	=17	=17	=17
8.f/L	4CC\	.	4ryy	.	.
16e-/Jk	.	.	.	.	.
4.g/)	2ryy	.	(4cc'/ 4ee-	.	.
.	.	.	4ee-'/) 4gg	.	[
(8g/L	.	.	.	.	.
8f/	4rEE	.	4ryy	.	.
8e-/J)	.	.	.	.	.
=18	=18	=18	=18	=18	=18
(8.e-/L	4DD\	.	4ryy	.	f
16d/Jk)	.	.	.	.	.
(16qqd/LL	.	.	.	.	.
!	!	!	!LO:TX:b:i:t=espress&colon;	!	!
24qqf/JJ	.	.	.	.	.
(8.e-/L)	4rEE	.	4g/ 4b-	.	.
16d/Jk)	.	.	.	.	.
(8.d/L	4DD\	.	4ryy	.	.
16An/Jk	.	.	.	.	.
8.c/L	4rEE	.	4f#X/ 4a-	.	>
16B-/Jk	.	.	.	.	.
=19	=19	=19	=19	=19	=19
[2G/)	4GG\	.	4ryy	.	.
.	2ryy	.	(4g'/ 4b- 4dd	.	.
8G/L]	.	.	4b-'/) 4dd 4gg	.	]
(24B-/L	.	.	.	.	.
24c/	.	.	.	.	.
24B-/JJ	.	.	.	.	.
8An/L	4rEE	.	4ryy	.	.
8B-/J	.	.	.	.	.
=20	=20	=20	=20	=20	=20
8.c/L	4AA-X\	.	4ryy	.	.
16B-/Jk	.	.	.	.	.
4.d/)	2ryy	.	(4a-'/ 4b-	.	.
.	.	.	4b-'/) 4dd	.	.
(24B-/LL	.	.	.	.	.
24c/	.	.	.	.	.
24B-/JJ	.	.	.	.	.
8An/L	4rEE	.	4ryy	.	.
8B-/J	.	.	.	.	.
=21	=21	=21	=21	=21	=21
8.c/L	4GG\	.	4ryy	.	.
16B-/Jk	.	.	.	.	.
4.e-/)	2ryy	.	(4g'/ 4b-	.	.
.	.	.	4b-'/) 4ee-	.	.
(24c/LL	.	.	.	.	.
24d-X/	.	.	.	.	.
24c/JJ	.	.	.	.	.
8Bn/L	4rEE	.	4ryy	.	.
8c/J	.	.	.	.	.
=22	=22	=22	=22	=22	=22
8.d-X/L	4BB-\	.	4ryy	.	.
16c/Jk	.	.	.	.	.
4.en/)	2ryy	.	(4b-'/ 4cc	.	.
.	.	.	4cc'/) 4een	.	.
(24c/LL	.	.	.	.	.
24d-/	.	.	.	.	.
24c/JJ	.	.	.	.	.
8Bn/L	4rEE	.	4ryy	.	<
8c/J	.	.	.	.	.
=23	=23	=23	=23	=23	=23
8.d-X/L	4AA-\	.	4ryy	.	.
16c/Jk	.	.	.	.	.
4.f/)	2ryy	.	(4a-'/ 4cc	.	.
.	.	.	4cc'/) 4ff	.	[
(24c/LL	.	.	.	.	.
24d-/	.	.	.	.	.
24c/JJ	.	.	.	.	.
8Bn/L	4rEE	.	4ryy	.	.
8c/J	.	.	.	.	.
=24	=24	=24	=24	=24	=24
4.a-/	4FF\	.	4ryy	.	.
.	2ryy	.	(4cc'/ 4ff	.	.
8g/)	.	.	.	.	.
(12g/L	.	.	4cc'/) 4aa-	.	.
12f/	.	.	.	.	.
12e-/J	.	.	.	.	.
12d/L	4rEE	.	4ryy	.	.
12e-/	.	.	.	.	.
12c/J	.	.	.	.	.
=25	=25	=25	=25	=25	=25
8.d/L	4BB-\	.	4ryy	.	.
16c/Jk	.	.	.	.	.
4.B-/)	2ryy	.	(4g'/ 4b-	.	.
.	.	.	4b-'/) 4ee-	.	.
(8B-/L	.	.	.	.	.
8An/	4rEE	.	4ryy	.	.
8B-/J	.	.	.	.	.
=26	=26	=26	=26	=26	=26
8.c-X/L	4BB-\	.	4ryy	.	.
16D/Jk	.	.	.	.	.
4.cn/)	2ryy	.	(4a-'/ 4dd	.	.
.	.	.	4dd'/) 4ff	.	.
(8c/L	.	.	.	.	.
8B-/	4rEE	.	4ryy	.	.
8A-X/J	.	.	.	.	.
=27	=27	=27	=27	=27	=27
2F#X/	4EE-\	.	4ryy	.	.
.	2ryy	.	(4an'/ 4ee-	.	.
!	!	!	!	!	!LO:DY:a
8G/L)	.	.	4b-'/) 4ee-	.	p
(24B-/L	.	.	.	.	.
24c/	.	.	.	.	.
24B-/JJ	.	.	.	.	.
8An/L	4rEE	.	4ryy	.	.
8B-/J	.	.	.	.	.
=28	=28	=28	=28	=28	=28
8.c/L	4AA-\	.	4ryy	.	.
16B-/Jk	.	.	.	.	.
4.d/)	2ryy	.	(4a-'/ 4b-	.	.
.	.	.	4b-'/) 4dd	.	.
(24B-/LL	.	.	.	.	.
24c/	.	.	.	.	.
24B-/JJ	.	.	.	.	.
8An/L	4rEE	.	4ryy	.	<
8B-/J	.	.	.	.	.
=29	=29	=29	=29	=29	=29
8.c/L	4GG\	.	4ryy	.	.
16B-/Jk	.	.	.	.	.
4.e-/)	2ryy	.	(4g'/ 4b-	.	.
.	.	.	4b-'/) 4ee-	.	[
(24c/LL	.	.	.	.	.
24d-X/	.	.	.	.	.
24c/JJ	.	.	.	.	.
8Bn/L	4rEE	.	4ryy	.	.
8c/J	.	.	.	.	.
=30	=30	=30	=30	=30	=30
!	!	!	!LO:TX:b:i:t=molto cres&colon;	!	!
8.d-X/L	4BB-\	.	4ryy	.	.
16c/Jk	.	.	.	.	.
4.en/)	2ryy	.	(4b-'/ 4cc	.	.
.	.	.	4cc'/) 4een	.	.
(24c/LL	.	.	.	.	.
24d-/	.	.	.	.	.
24c/JJ	.	.	.	.	.
8Bn/L	4rEE	.	4ryy	.	.
8c/J	.	.	.	.	.
=31	=31	=31	=31	=31	=31
8.d/L	4AA-\	.	4ryy	.	.
16c/Jk	.	.	.	.	.
4.f/)	2ryy	.	(4a-'/ 4cc	.	.
.	.	.	4cc'/) 4ff	.	.
(24c/LL	.	.	.	.	.
24d/	.	.	.	.	.
24c/JJ	.	.	.	.	.
8Bn/L	4rEE	.	4ryy	.	.
8c/J	.	.	.	.	.
=32	=32	=32	=32	=32	=32
*	*	*	*^	*	*
!	!	!	!LO:TX:b:B:t=m.d.	!	!	!LO:DY:a
2.ryy	4FF\	.	4ryy	4.a-\)	.	f
.	2ryy	.	(4cc'/ 4ff	.	.	.
.	.	.	.	(8g\	.	.
.	.	.	4cc'/) 4aa-	12b-\L	.	.
.	.	.	.	12a-\	.	.
.	.	.	.	12g\J	.	.
12f/L	4rEE	.	4ryy	4ryy	.	.
12e-/	.	.	.	.	.	.
12c/J)	.	.	.	.	.	.
*	*	*	*v	*v	*	*
=33	=33	=33	=33	=33	=33
(8.e-/L	4BB-\	.	4ryy	.	.
16G/Jk	.	.	.	.	.
4.B-/)	2ryy	.	(4g'/ 4b-	.	.
.	.	.	4b-'/) 4ee-	.	.
(8B-/L	.	.	.	.	.
8An/	4rEE	.	4ryy	.	.
8B-/J	.	.	.	.	.
=34	=34	=34	=34	=34	=34
8.c-X/L	4BBB-\	.	4ryy	.	>
16D/Jk	.	.	.	.	.
4.cn/)	2ryy	.	(4f'/ 4a-	.	.
.	.	.	4a-'/) 4dd	.	]
(8F/L	.	.	.	.	.
!	!	!	!LO:TX:b:t=ad lib&colon;	!	!
8.A-X/	4rEE	.	4ryy	.	.
16D/Jk	.	.	.	.	.
=35	=35	=35	=35	=35	=35
2.E-/)	4EE-\	.	4ryy	.	.
.	2ryy	.	(4g'/ 4b-	.	.
.	.	.	4g'/) 4b- 4ee-	.	.
4ryy@	4rD	.	4r	.	.
*v	*v	*	*	*	*
=36||	=36||	=36||	=36||	=36||
!	!	!LO:TX:b:i:t=energico.	!	!
!	!	!LO:TX:a:B:t=Più moto.	!	!LO:DY:a
[2C\ [2G [2c	.	[2e-\ [2g [2ee-	.	f
8C\L] 8G] 8c]	.	8e-\L] 8g] 8ee-]	.	.
8C\ 8G 8c	.	8e-\ 8g 8cc	.	.
8C\ 8A- 8Bn	.	8f\ 8a- 8bn	.	.
8C\J 8A- 8B	.	8f\J 8a- 8dd	.	.
=37	=37	=37	=37	=37
*^	*	*	*	*
4C\ 4G 4c	4ryy	.	4d/ 4g 4cc	.	.
(16C/LL	(16CC\LL	.	4.ryy	.	.
16BBn/	16BBBn\	.	.	.	.
16C/	16CC\	.	.	.	.
16BB/JJ	16BBB\JJ	.	.	.	.
8C/)	8CC\)	.	.	.	.
8ryy	8ryy	.	16r	.	.
.	.	.	(16c/	.	.
4ryy	4ryy	.	16e-\LL	.	.
.	.	.	16g\	.	.
.	.	.	16cc\	.	.
.	.	.	16ee-\JJ	.	.
*v	*v	*	*	*	*
=38	=38	=38	=38	=38
[2E-\ [2c [2e-	.	[2g\) [2cc [2gg	.	.
8E-\L] 8c] 8e-]	.	8g\L] 8cc] 8gg]	.	.
8C\ 8G 8c	.	8e-\ 8g 8ee-	.	.
8FF\ 8F	.	8d\ 8a- 8dd	.	.
8FF#X\J 8F#X	.	8e-\J 8an 8cc	.	.
=39	=39	=39	=39	=39
*^	*	*	*	*
4GG/ 4G	4ryy	.	4d/ 4g 4bn	.	.
(16GG/LL	(16GGG\LL	.	4.ryy	.	.
16FF#X/	16FFF#X\	.	.	.	.
16GG/	16GGG\	.	.	.	.
16FF#/JJ	16FFF#\JJ	.	.	.	.
8GG/)	8GGG\)	.	.	.	.
8ryy	8ryy	.	16r	.	.
.	.	.	(16g/	.	.
4ryy	4ryy	.	16a-\LL	.	.
.	.	.	16b\	.	.
.	.	.	16cc\	.	.
.	.	.	16dd\JJ	.	.
*v	*v	*	*	*	*
=40	=40	=40	=40	=40
[2C\ [2G [2c	.	[2e-\) [2g [2ee-	.	.
8C\L] 8G] 8c]	.	8e-\L] 8g] 8ee-]	.	.
8C\ 8G 8c	.	8e-\ 8g 8cc	.	.
8C\ 8A- 8Bn	.	8f\ 8a- 8bn	.	.
8C\J 8A- 8B	.	8f\J 8a- 8dd	.	.
=41	=41	=41	=41	=41
*^	*	*	*	*
4C\ 4G 4c	4ryy	.	4d/ 4g 4cc	.	.
(16C/LL	(16CC\LL	.	4.ryy	.	.
16BBn/	16BBBn\	.	.	.	.
16C/	16CC\	.	.	.	.
16BB/JJ	16BBB\JJ	.	.	.	.
8C/)	8CC\)	.	.	.	.
8ryy	8ryy	.	16r	.	.
.	.	.	(16f#X/	.	.
4rD	4ryy	.	16g/LL	.	.
.	.	.	16an/	.	.
.	.	.	16b-X/	.	.
.	.	.	16cc/JJ	.	.
*v	*v	*	*	*	*
=42	=42	=42	=42	=42
[2D\ [2B-	.	[2d/) [2g [2b- [2dd	.	.
8D\L] 8B-]	.	8d/L] 8g] 8b-] 8dd]	.	.
8D\ 8d	.	8g/ 8b-	.	.
8D\ 8c#X	.	8en/ 8g 8an	.	.
8D\J 8cn	.	8d/J 8f#X 8dd	.	.
=43	=43	=43	=43	=43
*^	*	*	*	*
4G\ 4B-	4ryy	.	4d/ 4g	.	.
(16GG/LL	(16GGG\LL	.	4.ryy	.	.
16FF#X/	16FFF#X\	.	.	.	.
16GG/	16GGG\	.	.	.	.
16FF#/JJ	16FFF#\JJ	.	.	.	.
8GG/)	8GGG\)	.	.	.	.
8ryy	8ryy	.	8r	.	.
4rc	4ryy	.	4r	.	.
*v	*v	*	*	*	*
=44	=44	=44	=44	=44
[2GG/ [2Fn	.	[2Bn/ [2a-	.	mf
8GG/L] 8F]	.	8B/L] 8a-]	.	.
8GG/ 8F	.	8B/ 8d	.	.
8GG/ 8E-	.	8B/ 8e-	.	.
8GG/J 8D	.	8B/J 8f	.	.
=45	=45	=45	=45	=45
*^	*	*	*	*
4GG/ 4E-	4ryy	.	4c/ 4g	.	.
(16GG/LL	(16GGG\LL	.	4.ryy	.	.
16FF#X/	16FFF#X\	.	.	.	.
16GG/	16GGG\	.	.	.	.
16FF#/JJ	16FFF#\JJ	.	.	.	.
8GG/)	8GGG\)	.	.	.	.
8ryy	8ryy	.	16r	.	.
.	.	.	(16G/	.	.
4rc	4ryy	.	16An/LL	.	.
.	.	.	16Bn/	.	.
.	.	.	16c/	.	.
.	.	.	16d/JJ	.	.
*v	*v	*	*	*	*
=46	=46	=46	=46	=46
[2GG/ [2C	.	[2F#X/) [2e-	.	.
8GG/L] 8C]	.	8F#/L] 8e-]	.	.
8GG/ 8C	.	8F#/ 8e-	.	.
8GG/ 8D	.	8F#/ 8d	.	.
8GG/J 8E-	.	8F#/J 8c	.	.
=47	=47	=47	=47	=47
*^	*	*	*	*
4GG/ 4D	4ryy	.	4G/ 4Bn	.	.
(16GG/LL	(16GGG\LL	.	4.ryy	.	.
16FF#X/	16FFF#X\	.	.	.	.
16GG/	16GGG\	.	.	.	.
16FF#/JJ	16FFF#\JJ	.	.	.	.
8GG/)	8GGG\)	.	.	.	.
8ryy	8ryy	.	8r	.	.
4rc	4ryy	.	4r	.	.
*v	*v	*	*	*	*
=48	=48	=48	=48	=48
[2GG/ [2Fn	.	[2Bn/ [2a-	.	.
8GG/L] 8F]	.	8B/L] 8a-]	.	.
8GG/ 8F	.	8B/ 8d	.	.
8GG/ 8E-	.	8B/ 8e-	.	.
8GG/J 8D	.	8B/J 8f	.	.
=49	=49	=49	=49	=49
*^	*	*	*	*
4GG/ 4E-	4ryy	.	4c/ 4g	.	.
(16C/LL	(16CC\LL	.	4.r	.	.
16BBn/	16BBBn\	.	.	.	.
16C/	16CC\	.	.	.	.
16BB/JJ	16BBB\JJ	.	.	.	.
8C/)	8CC\)	.	.	.	.
8ryy	8ryy	.	16r	.	<
.	.	.	(16f#X/	.	.
4rc	4ryy	.	16g/LL	.	.
.	.	.	16a-/	.	.
.	.	.	16b-/	.	.
.	.	.	16cc/JJ	.	.
*v	*v	*	*	*	*
=50	=50	=50	=50	=50
[2C\ [2B-X	.	[2en/) [2dd-X	.	[ f
8C\L] 8B-]	.	8e/L] 8dd-]	.	.
8C\ 8B-	.	8e/ 8g	.	.
8C\ 8A-	.	8e/ 8a-	.	.
8C\J 8G	.	8e/J 8b-	.	.
=51	=51	=51	=51	=51
*^	*	*	*	*
4F\ 4A-	4ryy	.	4f/ 4cc	.	.
(16AA-/LL	(16AAA-\LL	.	2r	.	.
16GG/	16GGG\	.	.	.	.
16AA-/	16AAA-\	.	.	.	.
16GG/JJ	16GGG\JJ	.	.	.	.
8AA-/)	8AAA-\)	.	.	.	.
8rA	8rEE	.	.	.	.
4A-\ 4c	4ryy	.	4e-/ 4f#X	.	.
*v	*v	*	*	*	*
=52	=52	=52	=52	=52
*	*	*^	*	*
!	!	!LO:TX:b:i:t=dim&colon;  e   rit&colon;	!	!	!
4G\ 4c	.	8e-/L 8g	2ryy	.	.
.	.	16r	.	.	.
.	.	(16g/Jk	.	.	.
4r	.	16f/LL	.	.	.
.	.	16e-/	.	.	.
.	.	16d/	.	.	.
.	.	16c/JJ	.	.	.
((2GG/ 2F	.	4.a-/	2Bn\	.	.
.	.	8g/	.	.	.
*	*	*v	*v	*	*
=53	=53	=53	=53	=53
!	!	!LO:TX:b:i:t=lunga.	!	!
[2C\)) [2E-	.	[2G/) [2c	.	.
4C;\] 4E-]	.	4G;/] 4c]	.	.
!	!	!LO:TX:a:B:t=m.d.	!	!LO:DY:a
(8.B-/L	.	4ryy	.	p
16An/Jk	.	.	.	.
=54	=54	=54	=54	=54
!	!	!LO:TX:a:B:t=Tempo Iº	!	!
16qAn/	.	.	.	.
*^	*	*	*	*
8.c/L	4EE-\	.	4ryy	.	.
16B-/Jk	.	.	.	.	.
!	!	!	!LO:TX:b:B:t=m.g.	!	!
4.G/)	2ryy	.	(4g'/ 4b-	.	.
!	!	!	!LO:TX:b:i:t=la melodia ben legato	!	!
.	.	.	4b-'/) 4ee-	.	.
(8B-/	.	.	.	.	.
8.e-/L	4rEE	.	4ryy	.	.
16d/Jk	.	.	.	.	.
=55	=55	=55	=55	=55	=55
8.f/L	4AA-\	.	4ryy	.	.
16e-/Jk	.	.	.	.	.
2c/)	2ryy	.	(4a-'/ 4cc 4ee-	.	.
.	.	.	4cc'/) 4ee- 4ff	.	.
(8d/L	4rEE	.	4ryy	.	<
8e-/J	.	.	.	.	.
=56	=56	=56	=56	=56	=56
(16qe-/	.	.	.	.	.
4g/)	4BB-\	.	4ryy	.	.
8f/L	2ryy	.	(4a-'/ 4b- 4dd	.	[
8d/J	.	.	.	.	.
20B-/LL	.	.	4b-'/) 4dd 4ff	.	.
20c/	.	.	.	.	.
20B-/	.	.	.	.	.
20An/	.	.	.	.	.
20B-/JJ	.	.	.	.	.
8c/L)	4rEE	.	4ryy	.	.
16r	.	.	.	.	.
(16A-X/Jk	.	.	.	.	.
=57	=57	=57	=57	=57	=57
2F#X/	4EE-\	.	4ryy	.	.
.	2ryy	.	(4an'/ 4ee-	.	.
4G/)	.	.	4b-'/) 4ee-	.	.
(8.B-/L	4rEE	.	4ryy	.	.
16An/Jk	.	.	.	.	.
=58	=58	=58	=58	=58	=58
16qA-/	.	.	.	.	.
8.c/L	4EE-\	.	4ryy	.	.
16B-/Jk	.	.	.	.	.
4.G/)	2ryy	.	(4g'/ 4b-	.	.
.	.	.	4b-'/) 4ee-	.	.
!	!	!	!LO:TX:t=P:problem= brak pauzy szesnastkowej	!	!
16rc	.	.	.	.	.
(16B-/KL	.	.	.	.	.
8.e-/	4rEE	.	4ryy	.	<
16d/Jk	.	.	.	.	.
=59	=59	=59	=59	=59	=59
16qd/	.	.	.	.	.
8.f/L	4CC\	.	4ryy	.	.
16e-/Jk	.	.	.	.	.
4.g/)	2ryy	.	(4cc'/ 4ee-	.	.
.	.	.	4ee-'/) 4gg	.	[
(8g/L	.	.	.	.	.
8f/	4rEE	.	4ryy	.	.
8e-/J)	.	.	.	.	.
=60	=60	=60	=60	=60	=60
(8.e-/L	4DD\	.	4ryy	.	.
16d/Jk)	.	.	.	.	.
(16qqd/LL	.	.	.	.	.
!	!	!	!LO:TX:b:i:t=espresss&colon;	!	!
16qqf/JJ	.	.	.	.	.
(8.e-/L)	4ryy	.	4g/ 4b-	.	.
16d/Jk)	.	.	.	.	.
(8.d/L	4DD\	.	4ryy	.	.
16An/Jk	.	.	.	.	.
8.c/L	4ryy	.	4f#X/ 4a-	.	>
16B-/Jk	.	.	.	.	.
=61	=61	=61	=61	=61	=61
[2G/)	4GG\	.	4ryy	.	.
.	2ryy	.	(4g'/ 4b- 4dd	.	]
8G/L]	.	.	4b-'/) 4dd 4gg	.	.
(24B-/L	.	.	.	.	.
24c/	.	.	.	.	.
24B-/JJ	.	.	.	.	.
8An/L	4rEE	.	4ryy	.	.
8B-/J	.	.	.	.	.
=62	=62	=62	=62	=62	=62
8.c/L	4AA-X\	.	4ryy	.	.
16B-/Jk	.	.	.	.	.
4.d/)	2ryy	.	(4a-'/ 4b-	.	.
.	.	.	4b-'/) 4dd	.	.
(24B-/LL	.	.	.	.	.
24c/	.	.	.	.	.
24B-/JJ	.	.	.	.	.
8An/L	4rEE	.	4ryy	.	.
8B-/J	.	.	.	.	.
=63	=63	=63	=63	=63	=63
8.c/L	4GG\	.	4ryy	.	.
16B-/Jk	.	.	.	.	.
4.e-/)	2ryy	.	(4g'/ 4b-	.	.
!	!	!	!LO:TX:b:i:t=cres&colon;	!	!
.	.	.	4b-'/) 4ee-	.	.
(24c/LL	.	.	.	.	.
24d-X/	.	.	.	.	.
24c/JJ	.	.	.	.	.
8Bn/L	4rEE	.	4ryy	.	.
8c/J	.	.	.	.	.
=64	=64	=64	=64	=64	=64
8.d-X/L	4BB-\	.	4ryy	.	.
16c/Jk	.	.	.	.	.
4.en/)	2ryy	.	(4b-'/ 4cc	.	.
.	.	.	4cc'/) 4een	.	.
(24c/LL	.	.	.	.	.
24d-/	.	.	.	.	.
24c/JJ	.	.	.	.	.
8Bn/L	4rEE	.	4ryy	.	<
8c/J	.	.	.	.	.
=65	=65	=65	=65	=65	=65
8.d-X/L	4AA-\	.	4ryy	.	.
16c/Jk	.	.	.	.	.
4.f/)	2ryy	.	(4a-'/ 4cc	.	[
.	.	.	4cc'/) 4ff	.	.
(24c/LL	.	.	.	.	.
24d-/	.	.	.	.	.
24c/JJ	.	.	.	.	.
8Bn/L	4rEE	.	4ryy	.	.
8c/J	.	.	.	.	.
=66	=66	=66	=66	=66	=66
!	!	!	!	!	!LO:DY:a
4.a-/	4FF\	.	4ryy	.	f
.	2ryy	.	(4cc'/ 4ff	.	.
8g/)	.	.	.	.	.
(12g/L	.	.	4cc'/) 4aa-	.	.
12f/	.	.	.	.	.
12e-/J	.	.	.	.	.
12d/L	4rEE	.	4ryy	.	.
12e-/	.	.	.	.	.
12c/J	.	.	.	.	.
=67	=67	=67	=67	=67	=67
8.d/L	4BB-\	.	4ryy	.	.
16c/Jk	.	.	.	.	.
4.B-/)	2ryy	.	(4g'/ 4b-	.	.
.	.	.	4b-'/) 4ee-	.	.
(8B-/L	.	.	.	.	.
8An/	4rEE	.	4ryy	.	.
8B-/J	.	.	.	.	.
=68	=68	=68	=68	=68	=68
8.c-X/L	4BB-\	.	4ryy	.	.
16D/Jk	.	.	.	.	.
4.cn/)	2ryy	.	(4a-'/ 4dd	.	>
.	.	.	4dd'/) 4ff	.	.
(8c/L	.	.	.	.	.
8B-/	4rEE	.	4ryy	.	.
8A-/J	.	.	.	.	.
=69	=69	=69	=69	=69	=69
2F#X/	4EE-\	.	4ryy	.	]
.	2ryy	.	(4an'/ 4ee-	.	.
8G/L)	.	.	4b-'/) 4ee-	.	p
(24B-/L	.	.	.	.	.
24c/	.	.	.	.	.
24B-/JJ	.	.	.	.	.
8An/L	4rEE	.	4ryy	.	.
8B-/J	.	.	.	.	.
=70	=70	=70	=70	=70	=70
8.c/L	4AA-\	.	4ryy	.	.
16B-/Jk	.	.	.	.	.
4.d/)	2ryy	.	(4a-'/ 4b-	.	.
.	.	.	4b-'/) 4dd	.	.
(24B-/LL	.	.	.	.	.
24c/	.	.	.	.	.
24B-/JJ	.	.	.	.	.
8An/L	4rEE	.	4ryy	.	<
8B-/J	.	.	.	.	.
=71	=71	=71	=71	=71	=71
8.c/L	4GG\	.	4ryy	.	.
16B-/Jk	.	.	.	.	.
4.e-/)	2ryy	.	(4g'/ 4b-	.	[
.	.	.	4b-'/) 4ee-	.	.
(24c/LL	.	.	.	.	.
24d-X/	.	.	.	.	.
24c/JJ	.	.	.	.	.
8Bn/L	4rEE	.	4ryy	.	.
8c/J	.	.	.	.	.
=72	=72	=72	=72	=72	=72
!	!	!	!LO:TX:b:i:t=molto cres&colon;	!	!
8.d-X/L	4BB-\	.	4ryy	.	.
16c/Jk	.	.	.	.	.
4.en/)	2ryy	.	(4b-'/ 4cc	.	.
.	.	.	4cc'/) 4een	.	.
(24c/LL	.	.	.	.	.
24d-/	.	.	.	.	.
24c/JJ	.	.	.	.	.
8Bn/L	4rEE	.	4ryy	.	.
8c/J	.	.	.	.	.
=73	=73	=73	=73	=73	=73
8.d-X/L	4AA-\	.	4ryy	.	.
16c/Jk	.	.	.	.	.
4.f/)	2ryy	.	(4a-'/ 4cc	.	.
.	.	.	4cc'/) 4ff	.	.
(24c/LL	.	.	.	.	.
24d-/	.	.	.	.	.
24c/JJ	.	.	.	.	.
8Bn/L	4rEE	.	4ryy	.	.
8c/J	.	.	.	.	.
=74	=74	=74	=74	=74	=74
*	*	*	*^	*	*
!	!	!	!LO:TX:b:B:t=m.d.	!	!	!LO:DY:a
2.ryy	4FF\	.	4ryy	4.a-\)	.	f
.	2ryy	.	(4cc'/ 4ff	.	.	.
.	.	.	.	(8g\	.	.
.	.	.	4cc'/) 4aa-	12b-\L	.	.
.	.	.	.	12a-\	.	.
.	.	.	.	12g\J	.	.
12f/L	4rEE	.	4ryy	4ryy	.	.
12e-/	.	.	.	.	.	.
12c/J)	.	.	.	.	.	.
*	*	*	*v	*v	*	*
=75	=75	=75	=75	=75	=75
(8.e-/L	4BB-\	.	4ryy	.	.
16G/Jk	.	.	.	.	.
4.B-/)	2ryy	.	(4g'/ 4b-	.	.
.	.	.	4b-'/) 4ee-	.	.
(8B-/L	.	.	.	.	.
8An/	4rEE	.	4ryy	.	.
8B-/J	.	.	.	.	.
=76	=76	=76	=76	=76	=76
8.Bn/L	4BBB-\ 4BB-	.	4r	.	.
16c/Jk	.	.	.	.	.
4.f/)	2ryy	.	(4an'/ 4ee-	.	.
.	.	.	4ee-'/) 4ff	.	.
(24c/LL	.	.	.	.	.
24d/	.	.	.	.	.
24c/JJ	.	.	.	.	.
8B/L	4rEE	.	4ryy	.	<
8c/J	.	.	.	.	.
=77	=77	=77	=77	=77	=77
8c#X/L	4BBB-\ 4BB-	.	4ryy	.	.
8d/J	.	.	.	.	.
2b-/)	2ryy	.	(4a-X'/ 4dd	.	[
.	.	.	4dd'/) 4aa-	.	.
(8.d/L	4rEE	.	4ryy	.	>
16e-/Jk)	.	.	.	.	.
=78	=78	=78	=78	=78	=78
[2e-/	4EE-\	.	4ryy	.	.
.	2ryy	.	(4b-'/ 4ee- 4gg	.	]
8e-/L]	.	.	4cc'/) 4ee- 4aa-	.	<
(24e-/L	.	.	.	.	.
24f/	.	.	.	.	.
24e-/JJ	.	.	.	.	.
8d/L	4rEE	.	4ryy	.	.
8e-/J	.	.	.	.	.
=79	=79	=79	=79	=79	=79
8f^/L	4EE-\	.	4ryy	.	[ >
8e-/J	.	.	.	.	.
4.B-/)	2ryy	.	(4b-'/ 4ee- 4gg	.	]
.	.	.	4a-'/) 4b- 4dd 4ff	.	.
(24B-/LL	.	.	.	.	.
24c/	.	.	.	.	.
24B-/JJ	.	.	.	.	.
8An/L	4rEE	.	4ryy	.	.
8B-/J	.	.	.	.	.
=80	=80	=80	=80	=80	=80
8c^/L	4EE-\	.	4ryy	.	.
8B-/J	.	.	.	.	.
4.E-/)	2ryy	.	(4e-'/ 4g 4b-	.	.
.	.	.	4g'/) 4b- 4dd-X	.	.
(24E-/LL	.	.	.	.	.
24F/	.	.	.	.	.
24E-/JJ	.	.	.	.	.
8D/L	4rEE	.	4ryy	.	.
8E-/J	.	.	.	.	.
=81	=81	=81	=81	=81	=81
8F/L	4EE-\	.	4ryy	.	.
8E-/	.	.	.	.	.
!	!	!	!LO:TX:b:i:t=decres&colon;  e   rall&colon;	!	!
8C/	4ryy	.	4e-'/ 4a- 4cc	.	.
8E-/J)	.	.	.	.	.
(8F/L	4EE-\	.	4ryy	.	.
8E-/	.	.	.	.	.
8C-X/	4ryy	.	4e-'/ 4a- 4cc-X	.	.
8E-/J)	.	.	.	.	.
=82	=82	=82	=82	=82	=82
[1E-	4EE-\	.	4ryy	.	.
!	!	!	!LO:TX:a:B:t=m.g.	!	!
.	2.ryy	.	(4B-'/ 4e- 4g	.	p
.	.	.	4e-'/ 4g 4b-	.	.
.	.	.	4g'/ 4b- 4ee-	.	.
*v	*v	*	*	*	*
=83	=83	=83	=83	=83
1E-_	.	4b-'\ 4ee- 4gg	.	.
.	.	4g'\ 4b- 4ee-	.	.
.	.	4b-'\ 4ee- 4gg	.	.
.	.	4ee-'\ 4gg 4bb-	.	.
=84	=84	=84	=84	=84
4E-\]	.	4gg'\) 4bb- 4eee-	.	.
4r	.	4r	.	.
2r	.	2r	.	.
=85	=85	=85	=85	=85
*^	*	*	*	*
2.E-/ 2.A- 2.c 2.e-	2.AAA-\ 2.AA-	.	2.ryy	.	pp
*v	*v	*	*	*	*
4rD	.	4r	.	.
=86	=86	=86	=86	=86
1EEE-; 1EE-	.	1G;: 1B-: 1e-: 1g:	.	.
==	==	==	==	==
*-	*-	*-	*-	*-
!!!system-decoration: {(s1,s2)}
!!!RDF**kern: > = above
!!!RDF**kern: < = below
!!!RDF**kern: N = linked
!!!AIN: 1 piano
!!!ENC: Arek Malec
!!!END: 2022-02-09
